Newaita/actions/32/system-run.svg

<svg height="32" viewBox="0 0 32 32" width="32" xmlns="http://www.w3.org/2000/svg"><g fill="#424242"><path d="m5.292969 2.894531c-1.464844 0-2.648438 1.183594-2.648438 2.648438v21.167969c0 1.464843 1.183594 2.644531 2.648438 2.644531h13.890625v-2.644531h-12.570313c-.730469 0-1.320312-.589844-1.320312-1.324219v-18.523438c0-.730469.589843-1.320312 1.320312-1.320312h18.523438c.734375 0 1.324219.589843 1.324219 1.320312v11.910157h2.644531v-13.230469c0-1.464844-1.179688-2.648438-2.644531-2.648438zm0 0"/><path d="m3.96875 10.835938h23.816406v1.320312h-23.816406zm0 0"/><path d="m22.492188 20.09375c-.367188.007812-.660157.304688-.660157.671875v7.9375c0 .535156.59375.851563 1.039063.554687l5.953125-3.96875c.398437-.265624.398437-.847656 0-1.113281l-5.953125-3.96875c-.113282-.074219-.246094-.113281-.378906-.113281zm0 0"/></g></svg>

<svg xmlns="http://www.w3.org/2000/svg" xmlns:xlink="http://www.w3.org/1999/xlink" width="32px" height="32px" viewBox="0 0 32 32" version="1.1">
<g id="surface1">
     <defs>
  <style id="current-color-scheme" type="text/css">
   .ColorScheme-Text { color:#424242; } .ColorScheme-Highlight { color:#eeeeee; }
  </style>
 </defs>
<path style="fill:currentColor" class="ColorScheme-Text" d="M 5.292969 2.894531 C 3.828125 2.894531 2.644531 4.078125 2.644531 5.542969 L 2.644531 26.710938 C 2.644531 28.175781 3.828125 29.355469 5.292969 29.355469 L 19.183594 29.355469 L 19.183594 26.710938 L 6.613281 26.710938 C 5.882812 26.710938 5.292969 26.121094 5.292969 25.386719 L 5.292969 6.863281 C 5.292969 6.132812 5.882812 5.542969 6.613281 5.542969 L 25.136719 5.542969 C 25.871094 5.542969 26.460938 6.132812 26.460938 6.863281 L 26.460938 18.773438 L 29.105469 18.773438 L 29.105469 5.542969 C 29.105469 4.078125 27.925781 2.894531 26.460938 2.894531 Z M 5.292969 2.894531 "/>
     <defs>
  <style id="current-color-scheme" type="text/css">
   .ColorScheme-Text { color:#424242; } .ColorScheme-Highlight { color:#eeeeee; }
  </style>
 </defs>
<path style="fill:currentColor" class="ColorScheme-Text" d="M 3.96875 10.835938 L 27.785156 10.835938 L 27.785156 12.15625 L 3.96875 12.15625 Z M 3.96875 10.835938 "/>
     <defs>
  <style id="current-color-scheme" type="text/css">
   .ColorScheme-Text { color:#424242; } .ColorScheme-Highlight { color:#eeeeee; }
  </style>
 </defs>
<path style="fill:currentColor" class="ColorScheme-Text" d="M 22.492188 20.09375 C 22.125 20.101562 21.832031 20.398438 21.832031 20.765625 L 21.832031 28.703125 C 21.832031 29.238281 22.425781 29.554688 22.871094 29.257812 L 28.824219 25.289062 C 29.222656 25.023438 29.222656 24.441406 28.824219 24.175781 L 22.871094 20.207031 C 22.757812 20.132812 22.625 20.09375 22.492188 20.09375 Z M 22.492188 20.09375 "/>
</g>
</svg>
